X:1
T:John Newton, 1779 (Hymn 57, Book 2)  86. 86. (C. M.)
T:G Major Oliver Holden, 1800
T:Mysterious Grace No copyright. Transcribed from Plain Psalmody, 1800.
%%score [ 1 2 3 4 ]
L:1/8
M:4/4
K:G
V:1 treble nm="Treble" snm="Tr."
V:2 treble nm="Counter" snm="C."
V:3 treble-8 nm="Tenor" snm="T."
V:4 bass nm="Bass" snm="B."
V:1
 D4 | G6 B2 | (B2 A2 G2) F2 | (G2 B2 d2) cB | A6 A2 | (A2 c2 Be) dc | B4 A4 | G8 | d4 c2 B2 | %9
 A6 B2 | G4 F4 | E6 c2 | (B2 c2 d2) eB | B4 A4 | G8 |] %15
V:2
 D4 | D6 G2 | D6 D2 | (D4 G2) F2 | D6 D2 | D4 G4 | D4 D4 | D8 | G4 A2 D2 | D6 D2 | E4 ^D4 | E6 F2 | %12
w: 1.~With|plea- sing|grief and|mourn- * ful|joy, My|spi- rit|now is|filled,|That I should|such a|life de-|stroy, Yet|
 G6 G2 | G4 F4 | G8 |] %15
w: live by|Him I|killed.|
V:3
 B4 | B6 d2 | (G2 A2 B2) A2 | (B2 d2 B2) AG | F6 F2 | (F2 A2 Gc) BA | G4 A4 | B8 | G4 F2 G2 | %9
 F6 G2 | B4 B4 | B6 A2 | (G2 c2 B2) cA | G4 c4 | B8 |] %15
V:4
 G,4 | G,6 G,2 | D,6 D,2 | (B,,2 G,,2 B,,2) C,2 | D,6 D,2 | D,4 D,4 | B,,4 D,4 | G,8 | %8
 B,4 A,2 G,2 | D,6 G,2 | B,4 B,,4 | E,6 D,2 | (G,2 A,2 B,2) C2 | D4 D,4 | G,8 |] %15

